packages/kaspersky-hexa-ui-icons/src/iconsSVGs/12/Filter.svg

<svg width="12" height="12" viewBox="0 0 12 12" fill="none" xmlns="http://www.w3.org/2000/svg">
<path d="M3.81719 10.3645C3.81719 10.6015 4.0073 10.7929 4.24293 10.7929H7.75594C7.99157 10.7929 8.18169 10.6015 8.18169 10.3645V7.74049H3.81719V10.3645ZM10.9276 1.20715H1.07131C0.743307 1.20715 0.538467 1.56461 0.703147 1.84978L3.66591 6.88366H8.33569L11.2984 1.84978C11.4604 1.56461 11.2556 1.20715 10.9276 1.20715Z" fill="black"/>
</svg>

<svg xmlns="http://www.w3.org/2000/svg" width="12" height="12" fill="none" viewBox="0 0 12 12"><path fill="#000" d="M3.8172 10.3645c0 .237.1901.4284.4257.4284h3.513c.2357 0 .4258-.1914.4258-.4284v-2.624H3.8172zm7.1104-9.1574H1.0713c-.328 0-.5328.3575-.3682.6426l2.9628 5.034h4.6698l2.9627-5.034c.162-.2851-.0428-.6426-.3708-.6426"/></svg>
